svgs/sharp-solid/money-bill-trend-up.svg

<svg xmlns="http://www.w3.org/2000/svg" viewBox="0 0 512 512"><!--! Font Awesome Pro 6.6.0 by @fontawesome - https://fontawesome.com License - https://fontawesome.com/license (Commercial License) Copyright 2024 Fonticons, Inc. --><path d="M304 0l32 0L448 0l32 0 0 32 0 112 0 32-64 0 0-32 0-34.7L310.6 214.6l-21 21-22.5-19.3L176 138.1 84.8 216.3 43.2 167.7l112-96L176 53.9l20.8 17.9 89.5 76.7L370.7 64 336 64l-32 0 0-64zM0 256l512 0 0 256L0 512 0 256zM48 416l0 48 48 0c0-26.5-21.5-48-48-48zM96 304l-48 0 0 48c26.5 0 48-21.5 48-48zM464 416c-26.5 0-48 21.5-48 48l48 0 0-48zM416 304c0 26.5 21.5 48 48 48l0-48-48 0zm-96 80a64 64 0 1 0 -128 0 64 64 0 1 0 128 0z"/></svg>

<svg xmlns="http://www.w3.org/2000/svg" viewBox="0 0 512 512"><!--! Font Awesome Pro 6.4.2 by @fontawesome - https://fontawesome.com License - https://fontawesome.com/license (Commercial License) Copyright 2023 Fonticons, Inc. --><path d="M304 0h32H448h32V32 144v32H416V144 109.3L310.6 214.6l-21 21-22.5-19.3L176 138.1 84.8 216.3 43.2 167.7l112-96L176 53.9l20.8 17.9 89.5 76.7L370.7 64H336 304V0zM0 256H512V512H0V256zM48 416v48H96c0-26.5-21.5-48-48-48zM96 304H48v48c26.5 0 48-21.5 48-48zM464 416c-26.5 0-48 21.5-48 48h48V416zM416 304c0 26.5 21.5 48 48 48V304H416zm-96 80a64 64 0 1 0 -128 0 64 64 0 1 0 128 0z"/></svg>
